X: 21772
T: King Of The Pipers
R: jig
M: 6/8
K: Cdorian
|:ecB c2F|FAB c2f|ecB c2F|FGA BGF|
ecB c2F|FAB cBG|AFA G=EG|FAc BGF:|
K:F
|:Acf agf|gec cde|fef agf|ac'a bag|
fef agf|gec cBG|AFA GEG|FAc BGF:|
K: CDOR
|:d2B c2B|dBG GFF|dBB cBG|BGF F2d|
d2B c2B|dBG Gf=e|f=ef c2B|AFF F3:|

